X:161
T: Go to Berwick Johnny
N: O'Farrell's Pocket Companion v.2 (Sky ed. p.82)
M: 6/4
L: 1/4
Q: 150
K: D
F/G/|: A2 B/A/G/F/ B/A/G/F/|AA B/A/G/F/ Ad|A2 B/A/G/F/ B/A/G/F/|GEEFGB :|
ADDd B/A/G/F/|ADDAFD|ADDd B/A/G/F/|GEEFGB :|
d>e dD F/G/A/F/|ddd DFA|d>ed DFA|e>fe EGB|
d>e dD F/G/A/F/|ddd Ad/e/f|d>e f/g/f/e/ dc|Bee EGB :|
